apps/service-portal/src/assets/images/hourglass.svg

<svg width="314" height="314" viewBox="0 0 314 314" fill="none" xmlns="http://www.w3.org/2000/svg">
<path d="M259.552 125.286C263.009 125.286 265.811 122.483 265.811 119.027C265.811 115.57 263.009 112.768 259.552 112.768C256.095 112.768 253.293 115.57 253.293 119.027C253.293 122.483 256.095 125.286 259.552 125.286Z" fill="#3761FB"/>
<path d="M158.025 285.424C161.481 285.424 164.284 282.622 164.284 279.165C164.284 275.709 161.481 272.906 158.025 272.906C154.568 272.906 151.766 275.709 151.766 279.165C151.766 282.622 154.568 285.424 158.025 285.424Z" fill="#3761FB"/>
<path d="M39.7513 79.233C43.208 79.233 46.0103 76.4307 46.0103 72.9739C46.0103 69.5171 43.208 66.7148 39.7513 66.7148C36.2945 66.7148 33.4922 69.5171 33.4922 72.9739C33.4922 76.4307 36.2945 79.233 39.7513 79.233Z" fill="#3761FB"/>
<path d="M185.383 216.139C179.686 214.663 174.299 212.182 169.474 208.813V139.974C169.474 131.6 175.68 130.554 175.68 130.554L192.521 117.533C192.521 117.533 177.01 117.533 155.815 100.493C134.62 83.4535 110.358 76.4199 110.358 76.4199C108.641 117.543 129.02 125.509 137.969 130.731C146.918 135.954 144.249 139.953 144.249 139.953V206.426C131.378 209.521 119.629 216.152 110.327 225.57V231.316H147.766C147.678 230.776 147.633 230.23 147.63 229.683C147.63 226.968 148.708 224.365 150.628 222.445C152.548 220.525 155.151 219.447 157.866 219.447C160.581 219.447 163.185 220.525 165.104 222.445C167.024 224.365 168.103 226.968 168.103 229.683C168.1 230.23 168.054 230.776 167.966 231.316H202.8V216.139C202.8 216.139 197.001 219.51 185.383 216.139Z" fill="url(#paint0_linear_9357_17022)"/>
<path d="M202.83 88.423C202.831 97.3089 200.271 106.007 195.455 113.475C190.64 120.943 183.774 126.864 175.68 130.53C173.849 131.338 172.29 132.655 171.189 134.326C170.088 135.997 169.492 137.95 169.473 139.95V139.95C169.492 141.951 170.088 143.904 171.189 145.575C172.29 147.245 173.849 148.563 175.68 149.37C183.783 153.042 190.655 158.974 195.471 166.454C200.287 173.934 202.842 182.644 202.83 191.541V231.314H110.357V191.541C110.357 182.567 112.967 173.787 117.869 166.271C122.772 158.756 129.756 152.829 137.968 149.213C139.775 148.436 141.315 147.148 142.401 145.509C143.486 143.869 144.07 141.948 144.081 139.982C144.068 138.017 143.483 136.099 142.398 134.461C141.312 132.823 139.773 131.538 137.968 130.761C129.757 127.143 122.775 121.216 117.873 113.7C112.97 106.185 110.359 97.4064 110.357 88.4335V48.6602H202.83V61.6179" stroke="#5E329C" stroke-width="2.6" stroke-linecap="round" stroke-linejoin="round"/>
<path d="M208.024 38.0781H103.608C100.701 38.0781 98.3438 40.4352 98.3438 43.3429C98.3438 46.2505 100.701 48.6076 103.608 48.6076H208.024C210.932 48.6076 213.289 46.2505 213.289 43.3429C213.289 40.4352 210.932 38.0781 208.024 38.0781Z" stroke="#5E329C" stroke-width="2.6" stroke-linecap="round" stroke-linejoin="round"/>
<path d="M157.898 242.829H103.618C102.23 242.829 100.899 242.278 99.9176 241.296C98.9361 240.315 98.3848 238.984 98.3848 237.596V236.643C98.3848 235.256 98.9361 233.924 99.9176 232.943C100.899 231.962 102.23 231.41 103.618 231.41H208.044C209.432 231.41 210.763 231.962 211.745 232.943C212.726 233.924 213.277 235.256 213.277 236.643V237.596C213.277 238.984 212.726 240.315 211.745 241.296C210.763 242.278 209.432 242.829 208.044 242.829H185.153" stroke="#5E329C" stroke-width="2.6" stroke-linecap="round" stroke-linejoin="round"/>
<path d="M87.6777 73.4863C142.366 73.4863 155.596 119.414 215.204 119.414" stroke="#5E329C" stroke-width="2.6" stroke-linecap="round" stroke-linejoin="round"/>
<path d="M157.898 139.969V206.777" stroke="#5E329C" stroke-width="2.6" stroke-linecap="round" stroke-linejoin="round"/>
<defs>
<linearGradient id="paint0_linear_9357_17022" x1="110.264" y1="153.894" x2="202.831" y2="153.894" gradientUnits="userSpaceOnUse">
<stop stop-color="#7390FC"/>
<stop offset="1" stop-color="#E64C84"/>
</linearGradient>
</defs>
</svg>

<svg width="314" height="314" fill="none" xmlns="http://www.w3.org/2000/svg"><path d="M259.552 125.286a6.26 6.26 0 1 0 0-12.519 6.26 6.26 0 0 0 0 12.519ZM158.025 285.424a6.26 6.26 0 1 0 0-12.519 6.26 6.26 0 0 0 0 12.519ZM39.751 79.233a6.26 6.26 0 1 0 0-12.518 6.26 6.26 0 0 0 0 12.518Z" fill="#3761FB"/><path d="M185.383 216.139a49.453 49.453 0 0 1-15.909-7.326v-68.839c0-8.374 6.206-9.42 6.206-9.42l16.841-13.021s-15.511 0-36.706-17.04c-21.195-17.04-45.457-24.073-45.457-24.073-1.717 41.123 18.662 49.089 27.611 54.311 8.949 5.223 6.28 9.222 6.28 9.222v66.473a71.014 71.014 0 0 0-33.922 19.144v5.746h37.439a10.51 10.51 0 0 1-.136-1.633 10.235 10.235 0 0 1 17.474-7.238 10.236 10.236 0 0 1 2.999 7.238 10.512 10.512 0 0 1-.137 1.633H202.8v-15.177s-5.799 3.371-17.417 0Z" fill="url(#a)"/><path d="M202.83 88.423a46.214 46.214 0 0 1-27.15 42.107 10.41 10.41 0 0 0-6.207 9.42v0a10.403 10.403 0 0 0 6.207 9.42 46.237 46.237 0 0 1 27.15 42.171v39.773h-92.473v-39.773c0-8.974 2.61-17.754 7.512-25.27a46.257 46.257 0 0 1 20.099-17.058 10.11 10.11 0 0 0 6.113-9.231 10.11 10.11 0 0 0-6.113-9.221 46.26 46.26 0 0 1-20.095-17.061 46.258 46.258 0 0 1-7.516-25.267V48.66h92.473v12.958M208.024 38.078H103.608a5.265 5.265 0 0 0 0 10.53h104.416a5.265 5.265 0 1 0 0-10.53ZM157.898 242.829h-54.28a5.23 5.23 0 0 1-5.233-5.233v-.953a5.233 5.233 0 0 1 5.233-5.233h104.426a5.234 5.234 0 0 1 5.233 5.233v.953a5.232 5.232 0 0 1-5.233 5.233h-22.891" stroke="#5E329C" stroke-width="2.6" stroke-linecap="round" stroke-linejoin="round"/><path d="M87.678 73.486c54.688 0 67.918 45.928 127.526 45.928M157.898 139.969v66.808" stroke="#5E329C" stroke-width="2.6" stroke-linecap="round" stroke-linejoin="round"/><defs><linearGradient id="a" x1="110.264" y1="153.894" x2="202.831" y2="153.894" gradientUnits="userSpaceOnUse"><stop stop-color="#7390FC"/><stop offset="1" stop-color="#E64C84"/></linearGradient></defs></svg>
